X:1
T:Are You on the Right Trail?
T:Are You on the Right Trail?
T:Haldor Lillenas
T:C. C. Munson, 1916
T:Public Domain Courtesy of the Cyber Hymnal™
T:Public Domain Courtesy of the Cyber Hymnal™
C:Haldor Lillenas
Z:Public Domain
Z:Courtesy of the Cyber Hymnal™
%%score ( 1 2 ) ( 3 4 )
L:1/8
Q:1/4=83
M:6/8
K:Bb
V:1 treble 
V:2 treble 
V:3 bass 
V:4 bass 
V:1
 [B,D]/[CE]/ | [DF][^C=E][DF] [DB]2 [D=c] | [EB]3 [EA]2 C/[B,D]/ | [A,E][A,D][A,E] ([EG][DF])[CE] | %4
w: 1.~There’s a|trail that so ma- ny|fol- low, It is|broad and with world~plea- * sure|
w: 2.~There’s a|trail that leads up to|glo- ry, ’Tis the|straight and the na- * rrow|
w: 3.~On the|trail that Je- sus has|bla- zoned, None of|Hea- ven can ev- * er|
 [B,D]3- [B,D]2 [B,D]/[CE]/ | [DF][^C=E][DF] [DB][EA][FB] | [Gc]3 [EG]2 [FG]/[FG]/ | %7
w: lined; * But its|end- ing is sor- row and|dark- ness, And its|
w: way; * It will|lead you be- side the still|wa- ters, To the|
w: fail; * He will|lead to the man- sions now|wait- ing, At the|
 [=Ec][Ed][Ec] [EG][FA][EB] | [_Ec]3- [Ec]2 ||"^Refrain" [EF]/[EF]/ | [Fd]>[Ec][DB] [DF]2 [FB] | %11
w: por- tals are ea- sy to|find. *|||
w: home of an un- end- ing|day. *|Are you|on the right trail, my|
w: end of the bright glo- ry|trail. *|||
 [FA] [EG]4 [FG]/[FG]/ | [=Ec]>[Ed][Ec] [EG][FA][EB] | [_Ec]3- [Ec]2 [Fd]/[Fe]/ | %14
w: |||
w: bro- ther? Are you|bound for the land of de-|light? * Is the|
w: |||
 [Ff]>[Ff][Ff] [Fd][Fc][FB] | [GB] [Ge]4 [Ge]/[Ge]/ | [Fd]>[Fe][Fd] [=Ec][EG][_EA] | B3- [DB]2 |] %18
w: ||||
w: Sav- ior your guide and your|help- er? He will|lead to the man- sions of|light. *|
w: ||||
V:2
 x | x6 | x5 C/ x/ | x6 | x6 | x6 | x6 | x6 | x5 || x | x6 | x6 | x6 | x6 | x6 | x6 | x6 | %17
 DFE x2 |] %18
V:3
 [B,,F,]/[B,,F,]/ | [B,,B,][B,,B,][B,,B,] [B,,F,]2 [B,,F,] | [C,F,]3 [C,F,]2 [D,F,]/[D,F,]/ | %3
w: ~ ~|~ ~ ~ ~ ~|~ ~ ~ ~|
 [C,F,][C,F,][C,F,] ([F,,F,][G,,F,])[A,,F,] | [B,,F,]3- [B,,F,]2 [B,,F,]/[B,,F,]/ | %5
w: ~ ~ ~ ~ * ~|~ * ~ ~|
 [B,,B,][B,,B,][B,,B,] [B,,F,][C,F,][D,B,] | [E,B,]3 [E,B,]2 [D,=B,]/[D,B,]/ | %7
w: ~ ~ ~ ~ ~ ~|~ ~ ~ ~|
 [C,C][C,C][C,C] [B,C][A,C][G,C] | [F,A,]3- [F,A,]2 || [F,A,]/[F,A,]/ | %10
w: ~ ~ ~ ~ ~ ~|~ *|~ ~|
 [B,,B,]>[B,,B,][B,,B,] [B,,B,]2 [D,B,] | [E,B,][E,B,][E,B,] [E,B,][E,B,][D,=B,]/[D,B,]/ | %12
w: ~ ~ ~ ~ ~|~ ~ ~ my bro- ther? ~|
 [C,C]>[C,C][C,C] [B,C][A,C][G,C] | [F,A,][F,A,][F,A,] [F,A,]2 [B,,B,]/[C,A,]/ | %14
w: ~ ~ ~ ~ ~ ~|~ ~ of de- light? ~|
 [D,B,]>[D,B,][D,B,] [B,,B,][C,A,][D,B,] | [E,B,][E,B,][E,B,] [E,B,][E,B,][E,B,]/[E,B,]/ | %16
w: ~ ~ ~ ~ ~ ~|~ ~ ~ your helper ~ ~|
 [F,B,]>[F,A,][F,B,] [G,B,][F,C][F,C] | (B,A,)G, [B,,F,]2 |] %18
w: ~ ~ ~ ~ ~ ~|~ * of light|
V:4
 x | x6 | x6 | x6 | x6 | x6 | x6 | x6 | x5 || x | x6 | x6 | x6 | x6 | x6 | x6 | x6 | B,,3- x2 |] %18

